X: 36338
T: Sean Bui
R: jig
M: 6/8
K: Dmajor
|:DDD AFA|BGB AFA|DDD AFA|BBc dBA|
DDD AFA|BGB AFA|dfd ecA|BBc d2 A:|
dfd ecA|dcB AFA|dfd ecA|BBc d2 A|
dfd ecA|dcB AFA|DDD AFA|B2c d2 A|
dfd ecA|dcB AFA|dfd ecA|B2c d2 f|
afd ecA|dcB AFA|DDD AFA|B2c d3||

